icon/pk/dribble.svg

<svg viewBox="0 0 48 48" fill="none" xmlns="http://www.w3.org/2000/svg" height="1em" width="1em">
  <path d="M44 24C44 29.5386 41.7486 34.5513 38.1112 38.173C34.4943 41.7742 29.5071 44 24 44C12.9543 44 4 35.0457 4 24C4 18.6615 6.09159 13.8116 9.5 10.225C13.1439 6.39055 18.2928 4 24 4C29.5071 4 34.4943 6.22583 38.1112 9.82695C41.7486 13.4487 44 18.4614 44 24Z" fill="#2F88FF" stroke="black" stroke-width="4" stroke-linecap="round" stroke-linejoin="round"/>
  <path d="M44.0003 24C41.0819 24 33.0315 22.8993 25.8268 26.0632C18.0003 29.5002 12.3327 34.8315 9.86328 38.1472" stroke="white" stroke-width="4" stroke-linecap="round" stroke-linejoin="round"/>
  <path d="M16.5 5.4538C19.6304 8.34269 26.4603 15.6985 29 23C31.5397 30.3015 32.4809 39.2791 33.0606 41.8347" stroke="white" stroke-width="4" stroke-linecap="round" stroke-linejoin="round"/>
  <path d="M4.1543 21.5C7.93207 21.7277 17.9329 21.9332 24.3329 19.1999C30.7329 16.4666 36.2402 11.4396 38.1291 9.84521" stroke="white" stroke-width="4" stroke-linecap="round" stroke-linejoin="round"/>
  <path d="M5.5 31.613C7.26166 35.8893 10.4628 39.4207 14.5 41.604" stroke="black" stroke-width="4" stroke-linecap="round" stroke-linejoin="round"/>
  <path d="M4 24.0001C4 18.6617 6.09159 13.8117 9.5 10.2251" stroke="black" stroke-width="4" stroke-linecap="round" stroke-linejoin="round"/>
  <path d="M24 4C18.2928 4 13.1439 6.39055 9.5 10.225" stroke="black" stroke-width="4" stroke-linecap="round" stroke-linejoin="round"/>
  <path d="M32 5.66406C34.2933 6.66606 36.3624 8.0857 38.1112 9.82684C41.7486 13.4485 44 18.4613 44 23.9999C44 26.4625 43.5549 28.8212 42.7408 30.9999" stroke="black" stroke-width="4" stroke-linecap="round" stroke-linejoin="round"/>
  <path d="M24 44C29.5071 44 34.4943 41.7742 38.1112 38.1731" stroke="black" stroke-width="4" stroke-linecap="round" stroke-linejoin="round"/>
</svg>

<svg width="48" height="48" fill="none" xmlns="http://www.w3.org/2000/svg"><path d="M44 24a19.938 19.938 0 0 1-5.889 14.173A19.937 19.937 0 0 1 24 44C12.954 44 4 35.046 4 24a19.932 19.932 0 0 1 5.5-13.775A19.943 19.943 0 0 1 24 4a19.937 19.937 0 0 1 14.111 5.827A19.938 19.938 0 0 1 44 24Z" fill="#2F88FF" stroke="#000" stroke-width="4" stroke-linecap="round" stroke-linejoin="round"/><path d="M44 24c-2.918 0-10.968-1.1-18.173 2.063C18 29.5 12.333 34.831 9.863 38.147" stroke="#fff" stroke-width="4" stroke-linecap="round" stroke-linejoin="round"/><path d="M16.5 5.454C19.63 8.343 26.46 15.698 29 23c2.54 7.302 3.48 16.28 4.06 18.835" stroke="#fff" stroke-width="4" stroke-linecap="round" stroke-linejoin="round"/><path d="M4.154 21.5c3.778.228 13.779.433 20.179-2.3 6.4-2.733 11.907-7.76 13.796-9.355" stroke="#fff" stroke-width="4" stroke-linecap="round" stroke-linejoin="round"/><path d="M5.5 31.613a20.076 20.076 0 0 0 9 9.991M4 24a19.932 19.932 0 0 1 5.5-13.775M24 4a19.943 19.943 0 0 0-14.5 6.225M32 5.664a20.037 20.037 0 0 1 6.111 4.163A19.938 19.938 0 0 1 44 24c0 2.462-.445 4.821-1.26 7M24 44a19.937 19.937 0 0 0 14.111-5.827" stroke="#000" stroke-width="4" stroke-linecap="round" stroke-linejoin="round"/></svg>
